packages/core/src/svgs/seilor.svg

<svg width="24" height="24" viewBox="0 0 24 24" fill="none" xmlns="http://www.w3.org/2000/svg">
<g clip-path="url(#clip0_31_18506)">
<path d="M0 0H24V24H0V0Z" fill="url(#paint0_linear_31_18506)"/>
<path fill-rule="evenodd" clip-rule="evenodd" d="M15.4285 8.57164C15.4285 6.70307 13.8685 5.14307 12 5.14307C10.1314 5.14307 8.57139 6.70307 8.57139 8.57164V5.14307C6.70282 5.14307 5.14282 6.70307 5.14282 8.57164H8.57139C6.70282 8.57164 5.14282 10.1316 5.14282 12.0002C5.14282 13.8688 6.70282 15.4288 8.57139 15.4288H5.14282C5.14282 17.2974 6.70282 18.8574 8.57139 18.8574V15.4288C8.57139 17.2974 10.1314 18.8574 12 18.8574C13.8685 18.8574 15.4285 17.2974 15.4285 15.4288V18.8574C17.2971 18.8574 18.8571 17.2974 18.8571 15.4288H15.4285C17.2971 15.4288 18.8571 13.8688 18.8571 12.0002C18.8571 10.1316 17.2971 8.57164 15.4285 8.57164ZM15.4285 12.0002V15.4288H12C12.9093 15.4288 13.7813 15.0676 14.4243 14.4246C15.0673 13.7816 15.4285 12.9095 15.4285 12.0002ZM8.57139 12.0002C8.57139 11.0909 8.93262 10.2188 9.5756 9.57584C10.2186 8.93286 11.0907 8.57164 12 8.57164H8.57139V12.0002ZM8.57139 12.0002C8.57139 12.9095 8.93262 13.7816 9.5756 14.4246C10.2186 15.0676 11.0907 15.4288 12 15.4288H8.57139V12.0002ZM15.4285 12.0002V5.14307C17.2971 5.14307 18.8571 6.70307 18.8571 8.57164H12C12.9093 8.57164 13.7813 8.93286 14.4243 9.57584C15.0673 10.2188 15.4285 11.0909 15.4285 12.0002Z" fill="white"/>
</g>
<defs>
<linearGradient id="paint0_linear_31_18506" x1="4.46571" y1="4.16143" x2="29.2071" y2="32.58" gradientUnits="userSpaceOnUse">
<stop stop-color="#1A1E21"/>
<stop offset="1" stop-color="#06060A"/>
</linearGradient>
<clipPath id="clip0_31_18506">
<rect width="24" height="24" fill="white"/>
</clipPath>
</defs>
</svg>

<svg xmlns="http://www.w3.org/2000/svg" width="24" height="24" fill="none" viewBox="0 0 24 24"><g clip-path="url(#a)"><path fill="url(#b)" d="M0 0h24v24H0z"/><path fill="#fff" fill-rule="evenodd" d="M15.429 8.572c0-1.869-1.56-3.429-3.429-3.429s-3.429 1.56-3.429 3.429V5.143c-1.868 0-3.428 1.56-3.428 3.429H8.57c-1.868 0-3.428 1.56-3.428 3.428 0 1.869 1.56 3.429 3.428 3.429H5.143c0 1.868 1.56 3.428 3.428 3.428V15.43c0 1.868 1.56 3.428 3.429 3.428s3.428-1.56 3.428-3.428v3.428c1.87 0 3.43-1.56 3.43-3.428h-3.43c1.87 0 3.43-1.56 3.43-3.429s-1.56-3.428-3.43-3.428m0 3.428v3.429H12A3.43 3.43 0 0 0 15.428 12M8.57 12A3.43 3.43 0 0 1 12 8.572H8.571zm0 0A3.43 3.43 0 0 0 12 15.43H8.571zm6.858 0V5.143c1.868 0 3.428 1.56 3.428 3.429H12A3.43 3.43 0 0 1 15.428 12" clip-rule="evenodd"/></g><defs><linearGradient id="b" x1="4.466" x2="29.207" y1="4.161" y2="32.58" gradientUnits="userSpaceOnUse"><stop stop-color="#1A1E21"/><stop offset="1" stop-color="#06060A"/></linearGradient><clipPath id="a"><path fill="#fff" d="M0 0h24v24H0z"/></clipPath></defs></svg>
